src/assets/icons/logo.svg

<svg xmlns="http://www.w3.org/2000/svg" width="235" height="43" fill="none">
  <defs/>
  <path fill="#fff" d="M231.575 12.7259c1.857 0 3.363-1.5056 3.363-3.36294C234.938 7.50565 233.432 6 231.575 6s-3.363 1.50565-3.363 3.36296c0 1.85734 1.506 3.36294 3.363 3.36294zM73.9998 11.344v3.836h-8.008v4.144h5.992v3.724h-5.992V31h-4.788V11.344h12.796zm7.3045 6.636c.56-.8587 1.26-1.5307 2.1-2.016.84-.504 1.7733-.756 2.8-.756v5.068h-1.316c-1.1947 0-2.0907.2613-2.688.784-.5974.504-.896 1.4-.896 2.688V31h-4.788V15.376h4.788v2.604zm14.3005 13.244c-1.5306 0-2.912-.3267-4.144-.98-1.2133-.6533-2.1746-1.5867-2.884-2.8-.6906-1.2133-1.036-2.632-1.036-4.256 0-1.6053.3547-3.0147 1.064-4.228.7094-1.232 1.68-2.1747 2.912-2.828 1.232-.6533 2.6134-.98 4.144-.98 1.5307 0 2.912.3267 4.144.98 1.2322.6533 2.2032 1.596 2.9122 2.828.709 1.2133 1.064 2.6227 1.064 4.228 0 1.6053-.364 3.024-1.092 4.256-.709 1.2133-1.689 2.1467-2.9402 2.8-1.232.6533-2.6133.98-4.144.98zm0-4.144c.9147 0 1.6894-.336 2.324-1.008.6534-.672.98-1.6333.98-2.884s-.3173-2.212-.952-2.884c-.616-.672-1.3813-1.008-2.296-1.008-.9333 0-1.708.336-2.324 1.008-.616.6533-.924 1.6147-.924 2.884 0 1.2507.2987 2.212.896 2.884.616.672 1.3814 1.008 2.296 1.008zm20.2362-11.872c1.829 0 3.285.5973 4.368 1.792 1.101 1.176 1.652 2.8 1.652 4.872V31h-4.76v-8.484c0-1.0453-.271-1.8573-.812-2.436s-1.269-.868-2.184-.868c-.915 0-1.643.2893-2.184.868-.541.5787-.812 1.3907-.812 2.436V31h-4.788V15.376h4.788v2.072c.485-.6907 1.139-1.232 1.96-1.624.821-.4107 1.745-.616 2.772-.616zm18.055 11.732V31h-2.436c-1.736 0-3.089-.42-4.06-1.26-.971-.8587-1.456-2.2493-1.456-4.172v-6.216h-1.904v-3.976h1.904v-3.808h4.788v3.808h3.136v3.976h-3.136v6.272c0 .4667.112.8027.336 1.008.224.2053.597.308 1.12.308h1.708zm7.455-11.76v3.976h6.412v3.696h-6.412v4.312h7.252V31h-12.04V11.344h12.04v3.836h-7.252zm15.149 2.8c.56-.8587 1.26-1.5307 2.1-2.016.84-.504 1.773-.756 2.8-.756v5.068h-1.316c-1.195 0-2.091.2613-2.688.784-.598.504-.896 1.4-.896 2.688V31h-4.788V15.376h4.788v2.604zm6.236 5.18c0-1.6053.299-3.0147.896-4.228.616-1.2133 1.447-2.1467 2.492-2.8 1.045-.6533 2.212-.98 3.5-.98 1.101 0 2.063.224 2.884.672.84.448 1.484 1.036 1.932 1.764v-2.212h4.788V31h-4.788v-2.212c-.467.728-1.12 1.316-1.96 1.764-.821.448-1.783.672-2.884.672-1.269 0-2.427-.3267-3.472-.98-1.045-.672-1.876-1.6147-2.492-2.828-.597-1.232-.896-2.6507-.896-4.256zm11.704.028c0-1.1947-.336-2.1373-1.008-2.828-.653-.6907-1.456-1.036-2.408-1.036s-1.764.3453-2.436 1.036c-.653.672-.98 1.6053-.98 2.8 0 1.1947.327 2.1467.98 2.856.672.6907 1.484 1.036 2.436 1.036s1.755-.3453 2.408-1.036c.672-.6907 1.008-1.6333 1.008-2.828zM42.4501 8.10537c3.7593 4.32133 4.3165 10.45083 3.3368 16.15393-.9145 5.3242-3.8443 9.9796-8.3173 12.8411-4.5364 2.9022-9.9911 3.7501-15.1027 2.1415-5.4885-1.7272-10.8048-5.2081-12.50777-10.8303-1.6717-5.5189 1.34147-11.0059 4.42917-15.8404 3.061-4.79256 6.7891-9.49314 12.3104-10.3687 5.8448-.92686 11.9143 1.37721 15.8514 5.90287z"/>
  <path fill="#CD10FF" d="M24.9824 9.38099c5.308.86651 9.9139 3.67221 12.7478 7.51741 2.7591 3.7436 3.0439 8.2504 2.0551 12.5676-1.0091 4.4054-3.0777 8.8004-7.5256 11.3169-4.505 2.5489-10.2072 2.5427-15.5655 1.7475-5.5618-.8253-11.41907-2.2606-14.50556-6.2099-3.083259-3.9451-2.430446-9.0239-.95307-13.57 1.37906-4.2435 4.37028-7.9246 8.73735-10.3833C14.4057 9.87156 19.735 8.52439 24.9824 9.38099z"/>
  <mask id="a" width="38" height="39" x="9" y="2" maskUnits="userSpaceOnUse">
    <path fill="#FF2C62" d="M42.4501 8.10537c3.7593 4.32133 4.3165 10.45083 3.3368 16.15393-.9145 5.3242-3.8443 9.9796-8.3173 12.8411-4.5364 2.9022-9.9911 3.7501-15.1027 2.1415-5.4885-1.7272-10.8048-5.2081-12.50777-10.8303-1.6717-5.5189 1.34147-11.0059 4.42917-15.8404 3.061-4.79256 6.7891-9.49314 12.3104-10.3687 5.8448-.92686 11.9143 1.37721 15.8514 5.90287z"/>
  </mask>
  <g mask="url(#a)">
    <path fill="url(#paint0_linear)" d="M24.9824 9.38099c5.308.86651 9.9139 3.67221 12.7478 7.51741 2.7591 3.7436 3.0439 8.2504 2.0551 12.5676-1.0091 4.4054-3.0777 8.8004-7.5256 11.3169-4.505 2.5489-10.2072 2.5427-15.5655 1.7475-5.5618-.8253-11.41907-2.2606-14.50556-6.2099-3.083259-3.9451-2.430446-9.0239-.95307-13.57 1.37906-4.2435 4.37028-7.9246 8.73735-10.3833C14.4057 9.87156 19.735 8.52439 24.9824 9.38099z"/>
  </g>
  <defs>
    <linearGradient id="paint0_linear" x1="20.1525" x2="20.1525" y1="9.12292" y2="43" gradientUnits="userSpaceOnUse">
      <stop stop-color="#FB6D3A" stop-opacity=".85"/>
      <stop offset="1" stop-color="#FB6D3A" stop-opacity=".11"/>
    </linearGradient>
  </defs>
</svg>

<svg width="235" height="43" viewBox="0 0 235 43" fill="none" xmlns="http://www.w3.org/2000/svg">
<path d="M231.575 12.7259C233.432 12.7259 234.938 11.2203 234.938 9.36296C234.938 7.50565 233.432 6 231.575 6C229.718 6 228.212 7.50565 228.212 9.36296C228.212 11.2203 229.718 12.7259 231.575 12.7259Z" fill="white"/>
<path d="M73.9998 11.344V15.18H65.9918V19.324H71.9838V23.048H65.9918V31H61.2038V11.344H73.9998ZM81.3043 17.98C81.8643 17.1213 82.5643 16.4493 83.4043 15.964C84.2443 15.46 85.1776 15.208 86.2043 15.208V20.276H84.8883C83.6936 20.276 82.7976 20.5373 82.2003 21.06C81.6029 21.564 81.3043 22.46 81.3043 23.748V31H76.5163V15.376H81.3043V17.98ZM95.6048 31.224C94.0742 31.224 92.6928 30.8973 91.4608 30.244C90.2475 29.5907 89.2862 28.6573 88.5768 27.444C87.8862 26.2307 87.5408 24.812 87.5408 23.188C87.5408 21.5827 87.8955 20.1733 88.6048 18.96C89.3142 17.728 90.2848 16.7853 91.5168 16.132C92.7488 15.4787 94.1302 15.152 95.6608 15.152C97.1915 15.152 98.5728 15.4787 99.8048 16.132C101.037 16.7853 102.008 17.728 102.717 18.96C103.426 20.1733 103.781 21.5827 103.781 23.188C103.781 24.7933 103.417 26.212 102.689 27.444C101.98 28.6573 101 29.5907 99.7488 30.244C98.5168 30.8973 97.1355 31.224 95.6048 31.224ZM95.6048 27.08C96.5195 27.08 97.2942 26.744 97.9288 26.072C98.5822 25.4 98.9088 24.4387 98.9088 23.188C98.9088 21.9373 98.5915 20.976 97.9568 20.304C97.3408 19.632 96.5755 19.296 95.6608 19.296C94.7275 19.296 93.9528 19.632 93.3368 20.304C92.7208 20.9573 92.4128 21.9187 92.4128 23.188C92.4128 24.4387 92.7115 25.4 93.3088 26.072C93.9248 26.744 94.6902 27.08 95.6048 27.08ZM115.841 15.208C117.67 15.208 119.126 15.8053 120.209 17C121.31 18.176 121.861 19.8 121.861 21.872V31H117.101V22.516C117.101 21.4707 116.83 20.6587 116.289 20.08C115.748 19.5013 115.02 19.212 114.105 19.212C113.19 19.212 112.462 19.5013 111.921 20.08C111.38 20.6587 111.109 21.4707 111.109 22.516V31H106.321V15.376H111.109V17.448C111.594 16.7573 112.248 16.216 113.069 15.824C113.89 15.4133 114.814 15.208 115.841 15.208ZM133.896 26.94V31H131.46C129.724 31 128.371 30.58 127.4 29.74C126.429 28.8813 125.944 27.4907 125.944 25.568V19.352H124.04V15.376H125.944V11.568H130.732V15.376H133.868V19.352H130.732V25.624C130.732 26.0907 130.844 26.4267 131.068 26.632C131.292 26.8373 131.665 26.94 132.188 26.94H133.896ZM141.351 15.18V19.156H147.763V22.852H141.351V27.164H148.603V31H136.563V11.344H148.603V15.18H141.351ZM156.5 17.98C157.06 17.1213 157.76 16.4493 158.6 15.964C159.44 15.46 160.373 15.208 161.4 15.208V20.276H160.084C158.889 20.276 157.993 20.5373 157.396 21.06C156.798 21.564 156.5 22.46 156.5 23.748V31H151.712V15.376H156.5V17.98ZM162.736 23.16C162.736 21.5547 163.035 20.1453 163.632 18.932C164.248 17.7187 165.079 16.7853 166.124 16.132C167.169 15.4787 168.336 15.152 169.624 15.152C170.725 15.152 171.687 15.376 172.508 15.824C173.348 16.272 173.992 16.86 174.44 17.588V15.376H179.228V31H174.44V28.788C173.973 29.516 173.32 30.104 172.48 30.552C171.659 31 170.697 31.224 169.596 31.224C168.327 31.224 167.169 30.8973 166.124 30.244C165.079 29.572 164.248 28.6293 163.632 27.416C163.035 26.184 162.736 24.7653 162.736 23.16ZM174.44 23.188C174.44 21.9933 174.104 21.0507 173.432 20.36C172.779 19.6693 171.976 19.324 171.024 19.324C170.072 19.324 169.26 19.6693 168.588 20.36C167.935 21.032 167.608 21.9653 167.608 23.16C167.608 24.3547 167.935 25.3067 168.588 26.016C169.26 26.7067 170.072 27.052 171.024 27.052C171.976 27.052 172.779 26.7067 173.432 26.016C174.104 25.3253 174.44 24.3827 174.44 23.188Z" fill="white"/>
<path d="M42.4501 8.10537C46.2094 12.4267 46.7666 18.5562 45.7869 24.2593C44.8724 29.5835 41.9426 34.2389 37.4696 37.1004C32.9332 40.0026 27.4785 40.8505 22.3669 39.2419C16.8784 37.5147 11.5621 34.0338 9.85913 28.4116C8.18743 22.8927 11.2006 17.4057 14.2883 12.5712C17.3493 7.77864 21.0774 3.07806 26.5987 2.2025C32.4435 1.27564 38.513 3.57971 42.4501 8.10537Z" fill="white"/>
<path d="M24.9824 9.38099C30.2904 10.2475 34.8963 13.0532 37.7302 16.8984C40.4893 20.642 40.7741 25.1488 39.7853 29.466C38.7762 33.8714 36.7076 38.2664 32.2597 40.7829C27.7547 43.3318 22.0525 43.3256 16.6942 42.5304C11.1324 41.7051 5.27513 40.2698 2.18864 36.3205C-0.894619 32.3754 -0.241806 27.2966 1.23557 22.7505C2.61463 18.507 5.60585 14.8259 9.97292 12.3672C14.4057 9.87156 19.735 8.52439 24.9824 9.38099Z" fill="#CD10FF"/>
<mask id="mask0" mask-type="alpha" maskUnits="userSpaceOnUse" x="9" y="2" width="38" height="39">
<path d="M42.4501 8.10537C46.2094 12.4267 46.7666 18.5562 45.7869 24.2593C44.8724 29.5835 41.9426 34.2389 37.4696 37.1004C32.9332 40.0026 27.4785 40.8505 22.3669 39.2419C16.8784 37.5147 11.5621 34.0338 9.85913 28.4116C8.18743 22.8927 11.2006 17.4057 14.2883 12.5712C17.3493 7.77864 21.0774 3.07806 26.5987 2.2025C32.4435 1.27564 38.513 3.57971 42.4501 8.10537Z" fill="#FF2C62"/>
</mask>
<g mask="url(#mask0)">
<path d="M24.9824 9.38099C30.2904 10.2475 34.8963 13.0532 37.7302 16.8984C40.4893 20.642 40.7741 25.1488 39.7853 29.466C38.7762 33.8714 36.7076 38.2664 32.2597 40.7829C27.7547 43.3318 22.0525 43.3256 16.6942 42.5304C11.1324 41.7051 5.27513 40.2698 2.18864 36.3205C-0.894619 32.3754 -0.241806 27.2966 1.23557 22.7505C2.61463 18.507 5.60585 14.8259 9.97292 12.3672C14.4057 9.87156 19.735 8.52439 24.9824 9.38099Z" fill="url(#paint0_linear)"/>
</g>
<defs>
<linearGradient id="paint0_linear" x1="20.1525" y1="9.12292" x2="20.1525" y2="43" gradientUnits="userSpaceOnUse">
<stop stop-color="#FB6D3A" stop-opacity="0.85"/>
<stop offset="1" stop-color="#FB6D3A" stop-opacity="0.11"/>
</linearGradient>
</defs>
</svg>
